X:4
|:
M:4/4     %Meter
L:1/8     %
K:C
z2 [^G2E2B,2] z2 [E2B,2G,2] |z2 [^F2D2A,2] z2 [D2A,2F,2] ::z2 [G2E2B,2] z2 [C2G,2E,2] |1|3z2 [^F2D2A,2] z2 [E2B,2^G,2] :|2|4
z2 [c2A2E2] z2 [A2E2C2] ::z2 [c2A2E2] z2 [A2E2C2] |z2 [A2F2C2] z2 [F2C2A,2] ::z2 [B2G2D2] z2 [G2D2B,2] |1|3
z2 [A2F2C2] z2 [F2C2A,2] :|2|4z2 [E2C2G,2] z2 [F2C2A,2] :|

